X:99
T:Morning Dance. THO5.099, The
M:2/4
L:1/8
B:Thompson's Complete Collection of 200 Favourite Dances Vol.5
F:https://www.libraryofdance.org/manuals/1780c-Thompson-Compleat-5.pdf
Z:vmp. Peter Dunk 2024
Q:1/4=110
K:G
G/F/G/A/ GD|GB B2|B/A/B/c/ BA|Bd d2|
ceAc|BdGg|{g/}fe/d/ AB/^c/|dd d2:|
|:d/c/d/e/ dB|ca a2|c/B/c/d/ cA|Bg g2|
c/d/e/c/ A/B/c/A/|B/c/d/B/ G/A/B/G/|A/B/c/A/ D/E/F/D/|GG G2:|
W:
W:The 1st Couple foot it to the 2nd Lady & hands three round ./.
W:The same with the 2nd Gent ./:
W:Lead down the middle, up again & cast off :/.
W:Allemand with right and left hands :/:

